X: 139
T:Missa La sol fa re mi / Sanctus
N: Derived from Jos1102d-Missa_La_sol_fa_re_mi-Sanctus.krn
C: Josquin des Prez
%%abc-version 2.0
%%abcx-abcm2ps-target-version 5.9.1 (29 Sep 2008)
%%abc-creator hum2abc beta
%%abcx-conversion-date 2019/02/12 16:15:44
%%abc-edited-by Jesse Rodin
%%abc-edited-by Jesse Rodin; Victoria Chang 2011/05/04
%%abcx-initial-encoding-date 2011/05/04/
%%humdrum-veritas 1676256176
%%humdrum-veritas-data 1668976681
%%linebreak <none>
%%barnumbers 0
L: 1/4
M: 3/1
Q: 1/2=120
%%staves [1 2 3 4]
V: 1 clef=treble
V: 2 clef=treble-8
V: 3 clef=treble-8
V: 4 clef=bass
K: C
[V:1] A8A4 | 
[V:2] A8A3B | 
[V:3] z12 | 
[V:4] A,6G,2F,2D,2 | 
[V:1] G4F6D2 | 
[V:2] c4d8 | 
[V:3] z12 | 
[V:4] E,4D,8 | 
[V:1] E12- | 
[V:2] c12- | 
[V:3] A12 | 
[V:4] A,,12 | 
[V:1] E4A8 | 
[V:2] c4A4d4 | 
[V:3] G4F4D4 | 
[V:4] C,4D,3E,F,4 | 
[V:1] G4F4D4 | 
[V:2] B2e3dd4A2 | 
[V:3] E4A8 | 
[V:4] z2C,2D,3E,F,4 | 
[V:1] E4A8 | 
[V:2] B2c2A2f3edc | 
[V:3] G4F4D4 | 
[V:4] E,2C,2D,3E,F,4 | 
[V:1] G3EF2E4D2 | 
[V:2] B2c2F2c4A2 | 
[V:3] E4A8 | 
[V:4] z2C,2D,2C,2F,4 | 
[V:1] E4A8 | 
[V:2] B2c2A2f3edc | 
[V:3] G4F4D4 | 
[V:4] E,2C,2D,3E,F,4 | 
[V:1] G3EF2E4D2 | 
[V:2] B2c2F2c4d2 | 
[V:3] E4A8 | 
[V:4] z2C,2D,2C,2F,4 | 
[V:1] C2B,3A,A,4^G,2 | 
[V:2] e4A4d4 | 
[V:3] G4F4D4 | 
[V:4] E,4D,3C,B,,4 | 
[V:1] A,8C4- | 
[V:2] c6C2C4 | 
[V:3] E8z4 | 
[V:4] A,,8z4 | 
[V:1] C2C2C4F4 | 
[V:2] F6F2F4 | 
[V:3] A12 | 
[V:4] F,,6F,,2F,,4 | 
[V:1] E4A,6B,2 | 
[V:2] z4z4z2F2 | 
[V:3] G4F4D4 | 
[V:4] C,4D,8 | 
[V:1] C8F4 | 
[V:2] G2A3Fc4A2 | 
[V:3] E4A8 | 
[V:4] C,4F,8 | 
[V:1] G3A_B2A4F2 | 
[V:2] B2c2d3cA3B | 
[V:3] G4F4D4 | 
[V:4] E,4D,8 | 
[V:1] G2E3DC2B,4 | 
[V:2] c3BG2A4^G2 | 
[V:3] E8z4 | 
[V:4] C,6A,,2E,4 | 
[V:1] A,2C3DEFG3A | 
[V:2] A4E2G3AB2- | 
[V:3] e12 | 
[V:4] z2A,,2C,3D,E,F,G,2- | 
[V:1] B2A4c4BA | 
[V:2] Bcdf2ee4d2 | 
[V:3] d4c4A4 | 
[V:4] G,2D,2A,3G,F,4 | 
[V:1] G8z2G2 | 
[V:2] e4z2g4e2 | 
[V:3] B4e8 | 
[V:4] E,6C,2C,4 | 
[V:1] A2B2c2C3DEC | 
[V:2] f2g2e4z4 | 
[V:3] d4c4A4 | 
[V:4] z2G,2A,3B,C4 | 
[V:1] D4C4z2G2 | 
[V:2] z4z2a2g2e2 | 
[V:3] B4e8 | 
[V:4] z2G,2A,3B,C4 | 
[V:1] A2B2c2A4c2 | 
[V:2] f2g2e2c3BA2 | 
[V:3] d4c4A4 | 
[V:4] z2G,2A,3B,C2F,2 | 
[V:1] B2G3FEDC2G2- | 
[V:2] G8c4 | 
[V:3] B4e8 | 
[V:4] G,2E,3C,C,3D,E,F, | 
[V:1] GFF3EE4D2 | 
[V:2] B2A4G2A2D2 | 
[V:3] d4c4A4 | 
[V:4] G,2D,2A,3G,F,4 | 
[V:1] E12 ||  
[V:2] G12 ||  
[V:3] B12 ||  
[V:4] E,12 ||  
[V:1]  [K:C] [K:clef=treble][M:3/1]A6G2F2D2 | 
[V:2]  [K:C] [K:clef=treble-8][M:3/1]z12 | 
[V:3]  [K:C] [K:clef=treble-8][M:3/1]z12 | 
[V:4]  [K:C] [K:clef=bass][M:3/1]z12 | 
[V:1] E4A8 | 
[V:2] z12 | 
[V:3] A6G2F2D2 | 
[V:4] z12 | 
[V:1] G4F2E4DC | 
[V:2] z12 | 
[V:3] E4A8 | 
[V:4] z12 | 
[V:1] B,2E3DD4C2 | 
[V:2] z12 | 
[V:3] G4F2D2E2e2- | 
[V:4] z12 | 
[V:1] G2F3EA3GG2 | 
[V:2] z12 | 
[V:3] e2d2c2A2B2e2- | 
[V:4] z12 | 
[V:1] c2B3AA4^G2 | 
[V:2] z12 | 
[V:3] e2d2c2A2B4 | 
[V:4] z12 | 
[V:1] A8z4 | 
[V:2] A12 | 
[V:3] z12 | 
[V:4] A,,8C,2D,2 | 
[V:1] z12 | 
[V:2] G4c6A2 | 
[V:3] z12 | 
[V:4] E,8A,4 | 
[V:1] z12 | 
[V:2] B4e8 | 
[V:3] z12 | 
[V:4] G,4C6A,2 | 
[V:1] z12 | 
[V:2] d4f6d2 | 
[V:3] z12 | 
[V:4] B,4A,4D,4 | 
[V:1] z12 | 
[V:2] e12 | 
[V:3] z12 | 
[V:4] z2A,4G,2C3A, | 
[V:1] z12 | 
[V:2] d4c2A2B4 | 
[V:3] z12 | 
[V:4] B,4z2A,4G,2 | 
[V:1] z12 | 
[V:2] z2A2G2F3DE2 | 
[V:3] z12 | 
[V:4] F,3D,E,2A,4G,2 | 
[V:1] z12 | 
[V:2] z2A2G2c3AB2 | 
[V:3] z12 | 
[V:4] F,3D,E,2A,,4G,,2 | 
[V:1] z12 | 
[V:2] z2e2d2f3de2 | 
[V:3] z12 | 
[V:4] C,3A,,B,,2D,4C,2 | 
[V:1] z12 | 
[V:2] z2A2G2c3AB2 | 
[V:3] z12 | 
[V:4] F,3D,E,2A,4G,2 | 
[V:1] z12 | 
[V:2] z2A2G2c3AB2 | 
[V:3] z12 | 
[V:4] C3A,B,2A,4G,2 | 
[V:1] z4z4z2A2 | 
[V:2] z2d4c2f3d | 
[V:3] z12 | 
[V:4] F,2D,2E,4z4 | 
[V:1] G2c3AB2z2A2- | 
[V:2] e12 | 
[V:3] z2A4G2c3A | 
[V:4] z12 | 
[V:1] A2G2F2D2E4 | 
[V:2] z12 | 
[V:3] B4z2d4c2 | 
[V:4] z12 | 
[V:1] z2D4C2F3D | 
[V:2] z12 | 
[V:3] f3de4z2d2- | 
[V:4] z12 | 
[V:1] E4z2A2G2c2- | 
[V:2] z4z4z2A2- | 
[V:3] d2c2f3de4- | 
[V:4] z12 | 
[V:1] cAB2z2A2G2c2- | 
[V:2] A2G2c3A[M:2/1](3B2c2A2 | 
[V:3] e8z2A2- | 
[V:4] z4A,4E,2F,2- | 
[V:1] cAB3AA4^G2 | 
[V:2] (3c2d2B2(3e2f2d2e4- | 
[V:3] A2G2c2A2B4 | 
[V:4] F,2G,2A,2F,2E,4 | 
[V:1] A2c4B2A4 | 
[V:2] e12- | 
[V:3] z2A4G2c2A2 | 
[V:4] A,,4z4A,,4 | 
[V:1] !fermata!G12 ||  
[V:2] e12 ||  
[V:3] B12 ||  
[V:4] E,12 ||  
[V:1]  [K:C] [K:clef=treble][M:3/1]z12 | 
[V:2]  [K:C] [K:clef=treble-8][M:3/1]z12 | 
[V:3]  [K:C] [K:clef=treble-8][M:3/1]z12 | 
[V:4]  [K:C] [K:clef=bass][M:3/1]E,8D,4 | 
[V:1] z12 | 
[V:2] e8d4 | 
[V:3] z12 | 
[V:4] C,6A,,2B,,4 | 
[V:1] E8D4 | 
[V:2] c6A2B4 | 
[V:3] z12 | 
[V:4] z2A,,4A,4G,2 | 
[V:1] C6A,2B,4 | 
[V:2] z12 | 
[V:3] e8d4 | 
[V:4] A,2A,,4A,4G,2 | 
[V:1] z2E4F2G4 | 
[V:2] z2A2c3de2f2 | 
[V:3] c4A4B4 | 
[V:4] A,2A,,2A,2F,2E,4 | 
[V:1] CDEFG2c2d2B2 | 
[V:2] g4c4z2g2 | 
[V:3] e8d4 | 
[V:4] z2C4A,2B,2G,2 | 
[V:1] c2A4c2B2G2 | 
[V:2] e2f3ec2d2e2 | 
[V:3] c4A4B4 | 
[V:4] A,2F,4A,2G,2E,2 | 
[V:1] A2F2z2F2G2E2 | 
[V:2] c2d2A2d2B2c2 | 
[V:3] A8G4 | 
[V:4] F,2D,2z2D,2E,2C,2 | 
[V:1] F2D4F2EDCB, | 
[V:2] A2_B3AF2G2A2- | 
[V:3] F4D4E4 | 
[V:4] D,2_B,,4D,2C,B,,A,,G,, | 
[V:1] A,2A4F2G2E2- | 
[V:2] AGFED2d2B2c2 | 
[V:3] A8G4 | 
[V:4] F,,2F,4D,2E,2C,2 | 
[V:1] EDF3EDCB,4 | 
[V:2] A2d4f2e4 | 
[V:3] F4D4E4 | 
[V:4] D,3E,F,G,A,4^G,2 | 
[V:1] z12 | 
[V:2] z12 | 
[V:3] e8d4 | 
[V:4] A,2E,3F,G,A,B,2G,2 | 
[V:1] z12 | 
[V:2] z12 | 
[V:3] c4A4B4 | 
[V:4] A,2C3B,A,4^G,2 | 
[V:1] z2E3FGAB2G2 | 
[V:2] c8G2d2 | 
[V:3] e8d4 | 
[V:4] A,4C4B,4 | 
[V:1] A2c3BA4^G2 | 
[V:2] e2A2c3de4 | 
[V:3] c4A4B4 | 
[V:4] A,3G,F,4E,4 | 
[V:1] A4E4z4 | 
[V:2] c4z4z4 | 
[V:3] A8G4 | 
[V:4] z2A,,3B,,C,D,E,2C,2 | 
[V:1] z12 | 
[V:2] z12 | 
[V:3] F4D4E4 | 
[V:4] D,2F,3E,D,4^C,2 | 
[V:1] z2A,3B,CDE2C2 | 
[V:2] F8C2G2 | 
[V:3] A8G4 | 
[V:4] D,4F,4E,4 | 
[V:1] D2F3ED4^C2 | 
[V:2] A2D2F3GA4 | 
[V:3] F4D4E4 | 
[V:4] D,3C,B,,4A,,4 | 
[V:1] D2F4G2A2B2 | 
[V:2] D6E2F2G2 | 
[V:3] z2A4G2F2D2 | 
[V:4] A,3G,F,2E,2D,C,B,,2 | 
[V:1] c12 ||  
[V:2] A12 ||  
[V:3] E12 ||  
[V:4] A,,12 ||  
[V:1]  [K:C] [K:clef=treble][M:2/1]z8 | 
[V:2]  [K:C] [K:clef=treble-8][M:2/1]z8 | 
[V:3]  [K:C] [K:clef=treble-8][M:2/1]e8- | 
[V:4]  [K:C] [K:clef=bass][M:2/1]E,3F,G,2A,2- | 
[V:1] z8 | 
[V:2] z8 | 
[V:3] e8- | 
[V:4] A,2G,F,G,F,E,D, | 
[V:1] G3AB2c2- | 
[V:2] z8 | 
[V:3] e8 | 
[V:4] C,4z4 | 
[V:1] c2BABAGF | 
[V:2] z8 | 
[V:3] d8 | 
[V:4] z8 | 
[V:1] E4z4 | 
[V:2] z2e2f2a2- | 
[V:3] c4A4 | 
[V:4] z8 | 
[V:1] z8 | 
[V:2] a2gfgfed | 
[V:3] B8 | 
[V:4] z8 | 
[V:1] A8- | 
[V:2] c4z4 | 
[V:3] z8 | 
[V:4] A,3B,C2D2- | 
[V:1] A8- | 
[V:2] z8 | 
[V:3] z8 | 
[V:4] D2CB,CB,A,G, | 
[V:1] A8 | 
[V:2] z2c2d2f2- | 
[V:3] z8 | 
[V:4] F,4z4 | 
[V:1] G8 | 
[V:2] f2ededcB | 
[V:3] z8 | 
[V:4] z8 | 
[V:1] F4D4 | 
[V:2] A2F2G2D2 | 
[V:3] z2A2B2d2- | 
[V:4] z8 | 
[V:1] E4A,4- | 
[V:2] A6B2 | 
[V:3] d2cBcBAG | 
[V:4] z8 | 
[V:1] A,2B,2C2D2 | 
[V:2] c4F4 | 
[V:3] F3GA3B | 
[V:4] A,8- | 
[V:1] E2F3GA2- | 
[V:2] z2F2A3B | 
[V:3] c4F4 | 
[V:4] A,8- | 
[V:1] ABc4BA | 
[V:2] c3de2f2 | 
[V:3] z4c4 | 
[V:4] A,8 | 
[V:1] B3ABcd2- | 
[V:2] g3fd3e | 
[V:3] d4B4 | 
[V:4] G,8 | 
[V:1] dcA4B2- | 
[V:2] f2c2f4 | 
[V:3] A4d4 | 
[V:4] F,4D,4 | 
[V:1] B2c4BA | 
[V:2] e8 | 
[V:3] B2e4dc | 
[V:4] E,8- | 
[V:1] G2A4^G2 | 
[V:2] z2e6- | 
[V:3] B2A2B4 | 
[V:4] E,8 | 
[V:1] A8- | 
[V:2] e2c2f3e | 
[V:3] A8- | 
[V:4] A,,8- | 
[V:1] A8 ||  
[V:2] e8 ||  
[V:3] A8 ||  
[V:4] A,,8 ||  
[V:1]  [K:C] [K:clef=treble][M:2/1]z8 | 
[V:2]  [K:C] [K:clef=treble-8][M:2/1]A8 | 
[V:3]  [K:C] [K:clef=treble-8][M:2/1]z8 | 
[V:4]  [K:C] [K:clef=bass][M:2/1]z8 | 
[V:1] z8 | 
[V:2] B4d4 | 
[V:3] z8 | 
[V:4] z8 | 
[V:1] A8 | 
[V:2] c6BA | 
[V:3] z8 | 
[V:4] z8 | 
[V:1] B4d4 | 
[V:2] G6AB | 
[V:3] z8 | 
[V:4] z8 | 
[V:1] c6BA | 
[V:2] c2A4GF | 
[V:3] z8 | 
[V:4] z8 | 
[V:1] G6AB | 
[V:2] E4G4 | 
[V:3] z8 | 
[V:4] z8 | 
[V:1] c2A4GF | 
[V:2] A6B2 | 
[V:3] z8 | 
[V:4] z8 | 
[V:1] E4G4 | 
[V:2] c4B2c2- | 
[V:3] z8 | 
[V:4] z8 | 
[V:1] A6B2 | 
[V:2] c2BAc2d2 | 
[V:3] z8 | 
[V:4] z8 | 
[V:1] c4B2c2- | 
[V:2] e8- | 
[V:3] z8 | 
[V:4] z8 | 
[V:1] c2BAG4 | 
[V:2] e8 | 
[V:3] z8 | 
[V:4] E,6F,2 | 
[V:1] z2E4F2 | 
[V:2] z8 | 
[V:3] z8 | 
[V:4] G,2A,4G,F, | 
[V:1] G2A4GF | 
[V:2] z2A4B2 | 
[V:3] z8 | 
[V:4] E,2A,,2z4 | 
[V:1] E2A4B2 | 
[V:2] c2d4cB | 
[V:3] z8 | 
[V:4] z8 | 
[V:1] c2d4cB | 
[V:2] A2D2z4 | 
[V:3] z8 | 
[V:4] z4D,2E,2 | 
[V:1] A2D4E2 | 
[V:2] z8 | 
[V:3] z8 | 
[V:4] F,2G,4F,E, | 
[V:1] F2G4FE | 
[V:2] z2G4A2 | 
[V:3] z8 | 
[V:4] D,2G,,2z4 | 
[V:1] D2G4A2 | 
[V:2] B2c4BA | 
[V:3] z8 | 
[V:4] z8 | 
[V:1] B2c4BA | 
[V:2] G2C2z4 | 
[V:3] z8 | 
[V:4] z4C,2D,2 | 
[V:1] G2C4D2 | 
[V:2] z8 | 
[V:3] z8 | 
[V:4] E,2F,4E,D, | 
[V:1] E2F4ED | 
[V:2] z2F4G2 | 
[V:3] z8 | 
[V:4] C,2F,,2z4 | 
[V:1] C2A4G2 | 
[V:2] A2F4G2 | 
[V:3] z8 | 
[V:4] F,6E,2 | 
[V:1] F2D2E2A2- | 
[V:2] A2B2c4 | 
[V:3] z8 | 
[V:4] F,2G,2C,2F,2- | 
[V:1] A2G2F2D2 | 
[V:2] F2G2A2B2 | 
[V:3] z8 | 
[V:4] F,2E,2F,2G,2 | 
[V:1] E2A4G2 | 
[V:2] c3df2e2- | 
[V:3] z8 | 
[V:4] E,2F,4G,2 | 
[V:1] F2D2E4 | 
[V:2] edd4^c2 | 
[V:3] z8 | 
[V:4] A,2_B,2A,4 | 
[V:1] z8 | 
[V:2] d2a4g2 | 
[V:3] z8 | 
[V:4] z2F,4G,2 | 
[V:1] z4z2C2 | 
[V:2] f2d2e2a2- | 
[V:3] z8 | 
[V:4] A,2B,2C2F,2- | 
[V:1] F2G2A2B2 | 
[V:2] a2g2f2d2 | 
[V:3] z8 | 
[V:4] F,2E,2F,2G,2 | 
[V:1] c3df2e2- | 
[V:2] e2a4g2 | 
[V:3] z8 | 
[V:4] E,2F,4G,2 | 
[V:1] edd3cc2- | 
[V:2] f2d2e2a2- | 
[V:3] z8 | 
[V:4] A,2B,2C2F,2- | 
[V:1] cBB2A3G | 
[V:2] a2g2f2d2 | 
[V:3] z8 | 
[V:4] F,2G,2A,2B,2 | 
[V:1] G8 ||  
[V:2] e8 ||  
[V:3] z8 ||  
[V:4] C8 ||  
[V:1]  [K:C] [K:clef=treble][M:3/1]z12 | 
[V:2]  [K:C] [K:clef=treble-8][M:3/1]z12 | 
[V:3]  [K:C] [K:clef=treble-8][M:3/1]e8d4 | 
[V:4]  [K:C] [K:clef=bass][M:3/1]E,6F,2G,4 | 
[V:1] z12 | 
[V:2] z12 | 
[V:3] c8A4 | 
[V:4] A,4E,4F,4 | 
[V:1] z12 | 
[V:2] z12 | 
[V:3] B12 | 
[V:4] G,6F,2D,4 | 
[V:1] z12 | 
[V:2] e6f2g4 | 
[V:3] z4e8 | 
[V:4] C,12 | 
[V:1] z12 | 
[V:2] a4e4f4 | 
[V:3] d4c4A4 | 
[V:4] z12 | 
[V:1] z12 | 
[V:2] g6f2d4 | 
[V:3] B8z4 | 
[V:4] G,6A,2B,4 | 
[V:1] G6A2B4 | 
[V:2] c4g6f2 | 
[V:3] e8d4 | 
[V:4] C4C,4G,4 | 
[V:1] c8G4 | 
[V:2] e8e4 | 
[V:3] c4A4B4 | 
[V:4] A,8E,4 | 
[V:1] A4G4A4 | 
[V:2] c8c4 | 
[V:3] z4e8 | 
[V:4] F,4E,4C,4 | 
[V:1] B4G4A4 | 
[V:2] d4e4c4 | 
[V:3] d4c4A4 | 
[V:4] G,4E,4F,4 | 
[V:1] G6A2B4 | 
[V:2] z4g8 | 
[V:3] B4e6d2 | 
[V:4] G,4C,4G,4 | 
[V:1] c8B4 | 
[V:2] e4f4g4 | 
[V:3] c4A4B4 | 
[V:4] A,8G,4 | 
[V:1] c4B6A2 | 
[V:2] c4g4e4 | 
[V:3] e6d2c4 | 
[V:4] A,4G,4A,4- | 
[V:1] A8^G4 | 
[V:2] f4e8 | 
[V:3] A4B8 | 
[V:4] A,4E,8 | 
[V:1] A8z4 | 
[V:2] c6d2e4 | 
[V:3] A8G4 | 
[V:4] A,,6B,,2C,4 | 
[V:1] A,6B,2C4 | 
[V:2] f8e4 | 
[V:3] F4D4E4 | 
[V:4] D,8A,,4 | 
[V:1] D8A,4 | 
[V:2] f6e2d2c2 | 
[V:3] z4A8 | 
[V:4] D,6E,2F,4 | 
[V:1] D6E2F4 | 
[V:2] B4A4d4 | 
[V:3] G4F4D4 | 
[V:4] G,4D,8 | 
[V:1] G8D4 | 
[V:2] B4G6A2 | 
[V:3] E8z4 | 
[V:4] G,6A,2B,4 | 
[V:1] G6A2B4 | 
[V:2] B4E4z4 | 
[V:3] e8d4 | 
[V:4] E,6F,2G,4 | 
[V:1] E6F2G4 | 
[V:2] A4c4B4 | 
[V:3] c4A4B4 | 
[V:4] A,8E,4 | 
[V:1] A4E4B4 | 
[V:2] A4c4B4 | 
[V:3] e8d4 | 
[V:4] C6B,2G,4 | 
[V:1] c6B2G4 | 
[V:2] A4e8 | 
[V:3] c4A4B4 | 
[V:4] A,6G,2E,4 | 
[V:1] A4E4z4 | 
[V:2] c6B2A4 | 
[V:3] e8d4 | 
[V:4] A,,4C,4D,4 | 
[V:1] z12 | 
[V:2] G4A4E4 | 
[V:3] c4A4B4 | 
[V:4] E,4F,4G,4 | 
[V:1] A,4C4D4 | 
[V:2] z12 | 
[V:3] e8d4 | 
[V:4] A,8D,4 | 
[V:1] E4F4G4 | 
[V:2] z12 | 
[V:3] c4A4B4 | 
[V:4] A,8G,4 | 
[V:1] A4A,4B,4 | 
[V:2] A4c4d4 | 
[V:3] e8d4 | 
[V:4] C8B,4 | 
[V:1] C6D2E4 | 
[V:2] e4f4g4 | 
[V:3] c4A4B4 | 
[V:4] A,8E,4 | 
[V:1] A,4C4D4 | 
[V:2] a4e4z4 | 
[V:3] e8d4 | 
[V:4] C8B,4 | 
[V:1] E4A,4A4 | 
[V:2] A4c4d4 | 
[V:3] c4A8 | 
[V:4] A,6G,2F,4 | 
[V:1] G4C4D4 | 
[V:2] e6f2g4 | 
[V:3] B4e4d4 | 
[V:4] E,4C4B,4 | 
[V:1] E4C4D4 | 
[V:2] a4e4a4 | 
[V:3] c8A4 | 
[V:4] A,6G,2F,4 | 
[V:1] E12- | 
[V:2] g8G4 | 
[V:3] B8e4- | 
[V:4] E,6D,2C,2B,,2 | 
[V:1] E12- | 
[V:2] G4A8 | 
[V:3] e2d2c4A4 | 
[V:4] C,4A,,8 | 
[V:1] E12 |]  
[V:2] G12 |]  
[V:3] B12 |]  
[V:4] E,12 |]  



